components/ui-node-icon/src/output/output.large.svg

<svg width="32" height="32" viewBox="0 0 32 32" fill="none" xmlns="http://www.w3.org/2000/svg">
  <path fill-rule="evenodd" clip-rule="evenodd" d="M9 2C6.79086 2 5 3.79086 5 6V25C5 27.2091 6.79086 29 9 29H18.124C15.6646 27.6353 14 25.012 14 22C14 17.5817 17.5817 14 22 14C23.8919 14 25.6304 14.6567 27 15.7546V6C27 3.79086 25.2091 2 23 2H9Z" fill="var(--tbl--colors--icons--output--secondary)"/>
  <path fill-rule="evenodd" clip-rule="evenodd" d="M22 30C26.4183 30 30 26.4183 30 22C30 17.5817 26.4183 14 22 14C17.5817 14 14 17.5817 14 22C14 26.4183 17.5817 30 22 30ZM21 19C21 18.4477 21.4477 18 22 18C22.5523 18 23 18.4477 23 19V22.5858L23.2929 22.2929C23.6834 21.9024 24.3166 21.9024 24.7071 22.2929C25.0976 22.6834 25.0976 23.3166 24.7071 23.7071L22.7071 25.7071C22.5196 25.8946 22.2652 26 22 26C21.7348 26 21.4804 25.8946 21.2929 25.7071L19.2929 23.7071C18.9024 23.3166 18.9024 22.6834 19.2929 22.2929C19.6834 21.9024 20.3166 21.9024 20.7071 22.2929L21 22.5858V19Z" fill="var(--tbl--colors--icons--output--primary)"/>
</svg>

<svg xmlns="http://www.w3.org/2000/svg" width="32" height="32" fill="none" viewBox="0 0 32 32">
  <path fill="var(--tbl--colors--icons--output--secondary)" fill-rule="evenodd" d="M9 2a4 4 0 0 0-4 4v19a4 4 0 0 0 4 4h9.124A8 8 0 1 1 27 15.755V6a4 4 0 0 0-4-4H9Z" clip-rule="evenodd"/>
  <path fill="var(--tbl--colors--icons--output--primary)" fill-rule="evenodd" d="M22 30a8 8 0 1 0 0-16 8 8 0 0 0 0 16Zm-1-11a1 1 0 1 1 2 0v3.586l.293-.293a1 1 0 0 1 1.414 1.414l-2 2a1 1 0 0 1-1.414 0l-2-2a1 1 0 0 1 1.414-1.414l.293.293V19Z" clip-rule="evenodd"/>
</svg>
